contributed-vectors/pigments.svg

<svg width="192" height="192" viewBox="0 0 192 192" fill="none" xmlns="http://www.w3.org/2000/svg">
<g clip-path="url(#clip0)">
<path d="M184 96C184 101.04 183.57 105.99 182.75 110.8C179.64 103.71 175.14 95.81 168.6 88.16C166.11 85.24 161.05 79.4 152.95 73.69C145.08 68.16 137.64 65.06 127.99 61.06C117.5 56.71 116.11 57.06 110.07 53.7C108.3 52.71 101.84 49.03 93.8999 41.57C87.8999 35.94 83.8699 30.82 72.4899 14.04C71.9699 13.27 71.4199 12.47 70.8799 11.65C78.8399 9.27 87.2699 8 95.9999 8C144.6 8 184 47.4 184 96Z" fill="#C9EEE8"/>
<path d="M137.45 173.65C125.11 180.25 110.99 184 96 184C47.4 184 8 144.61 8 96C8 81.36 11.57 67.56 17.91 55.41C20.12 59 21.23 62.06 22.16 64.54C30.33 86.43 34.43 97.38 39.67 104.83C48.96 118.1 62.5 126.19 69.64 130.47C73.57 132.83 74.93 133.31 84.09 138.6C96.14 145.56 105 151.21 107.05 152.53C115.16 157.75 125.52 164.72 137.45 173.65Z" fill="#73ADA4"/>
<path d="M164.39 151.4C157 160.49 147.86 168.09 137.46 173.65C125.53 164.72 115.17 157.74 107.06 152.54C105.01 151.22 96.1499 145.57 84.0999 138.61C74.9399 133.32 73.5799 132.84 69.6499 130.48C62.4999 126.2 48.9699 118.11 39.6799 104.84C34.4399 97.39 30.3499 86.44 22.1699 64.55C21.2399 62.07 20.1299 59 17.9199 55.42C23.0399 45.61 29.9499 36.86 38.2299 29.66C38.3799 29.77 38.5199 29.86 38.6799 29.97C48.3199 36.48 68.5599 50.12 83.3199 72.17C83.7699 72.85 88.1499 79.68 96.8799 93.33C110.17 114.1 110.51 114.69 111.23 115.78C126.23 138.39 152.31 142.73 164.39 151.4Z" fill="#7BB8AF"/>
<path d="M182.75 110.8C180.19 126.01 173.71 139.91 164.39 151.4C152.31 142.73 126.23 138.39 111.22 115.77C110.5 114.68 110.17 114.09 96.87 93.32C88.14 79.67 83.76 72.84 83.31 72.16C68.55 50.11 48.31 36.47 38.67 29.96C38.51 29.85 38.36 29.76 38.22 29.65C47.57 21.49 58.67 15.28 70.87 11.65C71.42 12.46 71.96 13.26 72.48 14.04C83.87 30.83 87.89 35.95 93.89 41.57C101.84 49.04 108.29 52.72 110.06 53.7C116.1 57.06 117.49 56.71 127.98 61.06C137.63 65.06 145.07 68.15 152.94 73.69C161.05 79.4 166.1 85.24 168.59 88.16C175.13 95.81 179.64 103.71 182.75 110.8Z" fill="#96DFD3"/>
</g>
<defs>
<clipPath id="clip0">
<rect width="192" height="192" fill="white"/>
</clipPath>
</defs>
</svg>

<svg xmlns="http://www.w3.org/2000/svg" width="192" height="192" fill="none"><g clip-path="url(#a)"><path fill="#C9EEE8" d="M184 96c0 5.04-.43 9.99-1.25 14.8-3.11-7.09-7.61-14.99-14.15-22.64-2.49-2.92-7.55-8.76-15.65-14.47-7.87-5.53-15.31-8.63-24.96-12.63-10.49-4.35-11.88-4-17.92-7.36-1.77-.99-8.23-4.67-16.17-12.13-6-5.63-10.03-10.75-21.41-27.53-.52-.77-1.07-1.57-1.61-2.39C78.84 9.27 87.27 8 96 8c48.6 0 88 39.4 88 88Z"/><path fill="#73ADA4" d="M137.45 173.65C125.11 180.25 110.99 184 96 184c-48.6 0-88-39.39-88-88 0-14.64 3.57-28.44 9.91-40.59 2.21 3.59 3.32 6.65 4.25 9.13 8.17 21.89 12.27 32.84 17.51 40.29 9.29 13.27 22.83 21.36 29.97 25.64 3.93 2.36 5.29 2.84 14.45 8.13 12.05 6.96 20.91 12.61 22.96 13.93 8.11 5.22 18.47 12.19 30.4 21.12Z"/><path fill="#7BB8AF" d="M164.39 151.4c-7.39 9.09-16.53 16.69-26.93 22.25-11.93-8.93-22.29-15.91-30.4-21.11-2.05-1.32-10.91-6.97-22.96-13.93-9.16-5.29-10.52-5.77-14.45-8.13-7.15-4.28-20.68-12.37-29.97-25.64-5.24-7.45-9.33-18.4-17.51-40.29-.93-2.48-2.04-5.55-4.25-9.13a88.308 88.308 0 0 1 20.31-25.76c.15.11.29.2.45.31 9.64 6.51 29.88 20.15 44.64 42.2.45.68 4.83 7.51 13.56 21.16 13.29 20.77 13.63 21.36 14.35 22.45 15 22.61 41.08 26.95 53.16 35.62Z"/><path fill="#96DFD3" d="M182.75 110.8c-2.56 15.21-9.04 29.11-18.36 40.6-12.08-8.67-38.16-13.01-53.17-35.63-.72-1.09-1.05-1.68-14.35-22.45-8.73-13.65-13.11-20.48-13.56-21.16-14.76-22.05-35-35.69-44.64-42.2-.16-.11-.31-.2-.45-.31a87.717 87.717 0 0 1 32.65-18c.55.81 1.09 1.61 1.61 2.39 11.39 16.79 15.41 21.91 21.41 27.53 7.95 7.47 14.4 11.15 16.17 12.13 6.04 3.36 7.43 3.01 17.92 7.36 9.65 4 17.09 7.09 24.96 12.63 8.11 5.71 13.16 11.55 15.65 14.47 6.54 7.65 11.05 15.55 14.16 22.64Z"/></g><defs><clipPath id="a"><path fill="#fff" d="M0 0h192v192H0z"/></clipPath></defs></svg>
